src/cmd/ar/lc_numberingstart.svg

<svg viewBox="0 0 24 24" xmlns="http://www.w3.org/2000/svg"><path d="m20 4v1h-1v2h1v1h-5v-1h1v-2h-1v-1zm-7 0v1h-9v-1zm5 1h-1v2h1zm-5 1v1h-6v-1zm0 4v1h-9v-1zm0 2v1h-2v-1zm-4.875 0v1h-4.125v-1zm4.875 4v1h-9v-1zm0 2v1h-6v-1zm-7 1v1h-2v-1z" fill="#232629"/><path d="m19 10v1h-1v2h1v1h-3v-1h1v-2h-1v-1z" fill="#762572"/></svg>

<?xml version="1.0" encoding="UTF-8" standalone="no"?>
<svg
   xmlns:dc="http://purl.org/dc/elements/1.1/"
   xmlns:cc="http://creativecommons.org/ns#"
   xmlns:rdf="http://www.w3.org/1999/02/22-rdf-syntax-ns#"
   xmlns:svg="http://www.w3.org/2000/svg"
   xmlns="http://www.w3.org/2000/svg"
   xmlns:sodipodi="http://sodipodi.sourceforge.net/DTD/sodipodi-0.dtd"
   xmlns:inkscape="http://www.inkscape.org/namespaces/inkscape"
   viewBox="0 0 24 24"
   version="1.1"
   id="svg6"
   sodipodi:docname="lc_numberingstart.svg"
   inkscape:version="0.92.4 (5da689c313, 2019-01-14)">
  <metadata
     id="metadata12">
    <rdf:RDF>
      <cc:Work
         rdf:about="">
        <dc:format>image/svg+xml</dc:format>
        <dc:type
           rdf:resource="http://purl.org/dc/dcmitype/StillImage" />
      </cc:Work>
    </rdf:RDF>
  </metadata>
  <defs
     id="defs10" />
  <sodipodi:namedview
     pagecolor="#ffffff"
     bordercolor="#666666"
     borderopacity="1"
     objecttolerance="10"
     gridtolerance="10"
     guidetolerance="10"
     inkscape:pageopacity="0"
     inkscape:pageshadow="2"
     inkscape:window-width="1920"
     inkscape:window-height="1011"
     id="namedview8"
     showgrid="true"
     inkscape:zoom="27.812867"
     inkscape:cx="0.46659239"
     inkscape:cy="15.397404"
     inkscape:window-x="0"
     inkscape:window-y="32"
     inkscape:window-maximized="1"
     inkscape:current-layer="svg6">
    <inkscape:grid
       type="xygrid"
       id="grid822" />
  </sodipodi:namedview>
  <path
     d="m 20,4 v 1 h -1 v 2 h 1 V 8 H 15 V 7 h 1 V 5 H 15 V 4 Z M 13,4 V 5 H 4 V 4 Z m 5,1 h -1 v 2 h 1 z M 13,6 V 7 H 4 V 6 Z m 0,4 v 1 H 4 v -1 z m 0,2 v 1 H 4 v -1 z m 0,4 v 1 H 4 v -1 z m 0,2 v 1 H 4 v -1 z"
     id="path2"
     inkscape:connector-curvature="0"
     style="fill:#232629"
     sodipodi:nodetypes="cccccccccccccccccccccccccccccccccccccccccccccccc" />
  <path
     d="m19 10v1h-1v2h1v1h-3v-1h1v-2h-1v-1z"
     fill="#762572"
     id="path4" />
</svg>
